X:725
T:Reel 725
M:4/4
K:Gmaj
L:1/8
BA|G2Gd G2AG|EAAG AcBA|G2GA GABd|edef g2dB|G2GG G2AG|EAAG AGBA|Gggf edBG|ABAd c2|d2|BABc d2Bd|efge dBAG|EAAG ABAG|EDEG AcBA|BABd d2dB|AGBG A2GF|GAGE DEGA|BGAF G2|
